X:2100
T:Drömde mik en dröm i nat
T:(tolkning Povl Hamburger och Erik Bertelsen, 1945)
R:Visa
O:Lund, Skåne
Z:Åke Persson, 2011-09-27
M:6/4
L:1/4
K:Eb
E2 G F2 G | E2 D C2 E | G G G G2 E | C2 z4
w:Dröm-de mig en|dröm i nat om|sil-ke og är-lik|päl
E2 G F2 G | B2 c G2 =A | B B B G2 F | E4 z |
w:bar en dragt så|let og glat i|sol-fal-dets strå-le-väld
"Omkväde"D | E E F G2 E | C2 C4 |]
w:Nu|våg-ner den kla-re| mor-gen
(:musicend:)
I denna version är det bara avsnittet med text som följer de ursprungliga noterna. Resten är fritt komponerat med tillagt omkväde. Till denna Povl Hamburgers tolkning har Erik Bertelsen skrivit en text i flera verser. Denna fritt ihopdiktade version är den som numera vanligen används som "medeltidsvisan" ''Drömde mej en dröm i natt''. Texten är:

->Drömde mig en dröm i natt
->om silke och ärlig päl
->bar en dragt så let og glat
->i solfaldets stråleväld
->- nu vågner den klare morgen 

->Til de unges flok jag gik,
->jeg droges mod sang og dans.
->Tröstigt mödte jeg hans blik
->og lagde min hånd i hans
->- nu vågner den klare morgen 

->Alle andre på oss så,
->de smilede, og de lo.
->Snart gick dansen helt i stå,
->der dansede kun vi to
->- nu vågner den klare morgen 

->Drömte mig en dröm i nat
->om silke og ärlig päl.
->Fjernt han hilste med sin hat
->og grå gik min dröm på häld
->- nu vågner den klare morgen 

----

(:music:)
